!! 00000] TT[00
!! NN
!!!OTL: Mengjiang nÅ
!!!ARE: Asia, Ostasien, China, Jiangsu, wuxi
!! Ethnic Group: Han
!! Xiaodiao - Artikel, Essen 1991
!!!SCT: C0000
!!!YEM: Copyright 1995, estate of Helmut Schaffrath.
**kern
*ICvox
*Ivox
*M4/4
*k[]
*C:
{8f
4f
8g
8.a
16g
4a
=1
8.cc
16dd
8cc
8a
2g}
=2
{8g
8cc
8a
8g
8f
8g
4a
=3
8.g
16f
8d
8f
2c}
=4
{8.c
16d
4f
4g
8.a
16cc
=5
8g
4f
8c
2d}
=6
{8d
8g
8f
8d
8.c
16d
4f
=7
8.g
16f
8d
8f
2c}
==
!!!AGN: Xiaodiao, Shidiao
!! Das Lied wird zweiphrasig aufgefa·t. Grundton geÑndert.
!!!ONB: ESAC (Essen Associative Code) Database: CHINAx
!!!AMT: simple quadruple
!!!AIN: vox
!!!EED: Helmut Schaffrath
!!!EEV: 1.0
*-
